X:89
T:Eel in the Sink
Z: id:dc-reel-379
M:C
L:1/8
K:A Mixolydian
e2AB cdec|d2BG dGBd|e2AB cdea|gedB BAA2:|!
a2ea aged|cdef g2fg|a2ea agab|gedB BAA2|!
a2ea aged|cdef g2fg|afge fdea|gedB BAA2|]!

